; generated by Slic3r 1.2.9 on 2016-06-13 at 17:04:36

; external perimeters extrusion width = 0.45mm
; perimeters extrusion width = 0.45mm
; infill extrusion width = 0.45mm
; solid infill extrusion width = 0.45mm
; top infill extrusion width = 0.45mm

M107
M190 S50 ; set bed temperature
M201 X1000 Y1000 E600
M109 S210
M92 E161.3
G28
G92 E0.0
G1 X8.0 F2000
G1 Y60.0 E4.0  F1000.0
G1 Y100.0 E8.5  F1000.0
G92 E0.0
G21 ; set units to millimeters
G90 ; use absolute coordinates
M83 ; use relative distances for extrusion
G1 E-1.50000 F1800.00000
G1 Z0.200 F6000.000
G1 X73.855 Y61.184 F6000.000
G1 E1.50000 F1800.00000
G1 E0.04915 F1800.000 ; pressure advance
G1 X74.902 Y60.296 E0.04648 F2100.000
G1 X75.870 Y60.093 E0.03347
G1 X124.130 Y60.093 E1.63354
G1 X125.446 Y60.485 E0.04648
G1 X126.334 Y61.532 E0.04648
G1 X126.537 Y62.500 E0.03347
G1 X126.537 Y137.500 E2.53866
G1 X126.146 Y138.816 E0.04648
G1 X125.098 Y139.704 E0.04648
G1 X124.130 Y139.907 E0.03347
G1 X75.870 Y139.907 E1.63354
G1 X74.554 Y139.516 E0.04648
G1 X73.666 Y138.468 E0.04648
G1 X73.463 Y137.500 E0.03347
G1 X73.463 Y62.500 E2.53866
G1 X73.838 Y61.242 E0.04445
G1 E-0.04915 F1800.000 ; pressure discharge
G1 E-1.50000 F1800.00000
G1 X96.368 Y136.868 F6000.000
G1 E1.50000 F1800.00000
G1 E0.03144 F1800.000 ; pressure advance
G1 X76.502 Y136.868 E0.67244 F1680.000
G1 X76.502 Y103.262 E1.13753
G1 X96.368 Y103.262 E0.67244
G1 X96.368 Y136.808 E1.13550
G1 X96.775 Y137.275 F6000.000
G1 X76.095 Y137.275 E0.69999 F1680.000
G1 X76.095 Y102.855 E1.16509
G1 X96.775 Y102.855 E0.69999
G1 X96.775 Y137.215 E1.16306
G1 X96.429 Y137.075 F6000.000
G1 E-0.03144 F1800.000 ; pressure discharge
G1 E-1.50000 F1800.00000
G1 X76.803 Y136.355 F6000.000
G1 E1.50000 F1800.00000
G1 X77.016 Y136.567 E0.01018 F1680.000
G1 X77.592 Y136.567 E0.01951
G1 X76.803 Y135.779 E0.03778
G1 X76.803 Y135.203 E0.01951
G1 X78.168 Y136.567 E0.06537
G1 X78.744 Y136.567 E0.01951
G1 X76.803 Y134.627 E0.09296
G1 X76.803 Y134.051 E0.01951
G1 X79.320 Y136.567 E0.12055
G1 X79.896 Y136.567 E0.01951
G1 X76.803 Y133.475 E0.14814
G1 X76.803 Y132.899 E0.01951
G1 X80.472 Y136.567 E0.17573
G1 X81.048 Y136.567 E0.01951
G1 X76.803 Y132.322 E0.20332
G1 X76.803 Y131.746 E0.01951
G1 X81.624 Y136.567 E0.23092
G1 X82.200 Y136.567 E0.01951
G1 X76.803 Y131.170 E0.25851
G1 X76.803 Y130.594 E0.01951
G1 X82.776 Y136.567 E0.28610
G1 X83.352 Y136.567 E0.01951
G1 X76.803 Y130.018 E0.31369
G1 X76.803 Y129.442 E0.01951
G1 X83.928 Y136.567 E0.34128
G1 X84.504 Y136.567 E0.01951
G1 X76.803 Y128.866 E0.36887
G1 X76.803 Y128.290 E0.01951
G1 X85.080 Y136.567 E0.39646
G1 X85.656 Y136.567 E0.01951
G1 X76.803 Y127.714 E0.42406
G1 X76.803 Y127.138 E0.01951
G1 X86.232 Y136.567 E0.45165
G1 X86.808 Y136.567 E0.01951
G1 X76.803 Y126.562 E0.47924
G1 X76.803 Y125.986 E0.01951
G1 X87.384 Y136.567 E0.50683
G1 X87.960 Y136.567 E0.01951
G1 X76.803 Y125.410 E0.53442
G1 X76.803 Y124.834 E0.01951
G1 X88.536 Y136.567 E0.56201
G1 X89.113 Y136.567 E0.01951
G1 X76.803 Y124.258 E0.58960
G1 X76.803 Y123.682 E0.01951
G1 X89.689 Y136.567 E0.61719
G1 X90.265 Y136.567 E0.01951
G1 X76.803 Y123.106 E0.64479
G1 X76.803 Y122.530 E0.01951
G1 X90.841 Y136.567 E0.67238
G1 X91.417 Y136.567 E0.01951
G1 X76.803 Y121.954 E0.69997
G1 X76.803 Y121.378 E0.01951
G1 X91.993 Y136.567 E0.72756
G1 X92.569 Y136.567 E0.01951
G1 X76.803 Y120.802 E0.75515
G1 X76.803 Y120.226 E0.01951
G1 X93.145 Y136.567 E0.78274
G1 X93.721 Y136.567 E0.01951
G1 X76.803 Y119.650 E0.81033
G1 X76.803 Y119.073 E0.01951
G1 X94.297 Y136.567 E0.83793
G1 X94.873 Y136.567 E0.01951
G1 X76.803 Y118.497 E0.86552
G1 X76.803 Y117.921 E0.01951
G1 X95.449 Y136.567 E0.89311
G1 X96.025 Y136.567 E0.01951
G1 X76.803 Y117.345 E0.92070
G1 X76.803 Y116.769 E0.01951
G1 X96.067 Y136.034 E0.92273
G1 X96.067 Y135.458 E0.01951
G1 X76.803 Y116.193 E0.92273
G1 X76.803 Y115.617 E0.01951
G1 X96.067 Y134.882 E0.92273
G1 X96.067 Y134.306 E0.01951
G1 X76.803 Y115.041 E0.92273
G1 X76.803 Y114.465 E0.01951
G1 X96.067 Y133.730 E0.92273
G1 X96.067 Y133.154 E0.01951
G1 X76.803 Y113.889 E0.92273
G1 X76.803 Y113.313 E0.01951
G1 X96.067 Y132.577 E0.92273
G1 X96.067 Y132.001 E0.01951
G1 X76.803 Y112.737 E0.92273
G1 X76.803 Y112.161 E0.01951
G1 X96.067 Y131.425 E0.92273
G1 X96.067 Y130.849 E0.01951
G1 X76.803 Y111.585 E0.92273
G1 X76.803 Y111.009 E0.01951
G1 X96.067 Y130.273 E0.92273
G1 X96.067 Y129.697 E0.01951
G1 X76.803 Y110.433 E0.92273
G1 X76.803 Y109.857 E0.01951
G1 X96.067 Y129.121 E0.92273
G1 X96.067 Y128.545 E0.01951
G1 X76.803 Y109.281 E0.92273
G1 X76.803 Y108.705 E0.01951
G1 X96.067 Y127.969 E0.92273
G1 X96.067 Y127.393 E0.01951
G1 X76.803 Y108.129 E0.92273
G1 X76.803 Y107.553 E0.01951
G1 X96.067 Y126.817 E0.92273
G1 X96.067 Y126.241 E0.01951
G1 X76.803 Y106.977 E0.92273
G1 X76.803 Y106.401 E0.01951
G1 X96.067 Y125.665 E0.92273
G1 X96.067 Y125.089 E0.01951
G1 X76.803 Y105.825 E0.92273
G1 X76.803 Y105.248 E0.01951
G1 X96.067 Y124.513 E0.92273
G1 X96.067 Y123.937 E0.01951
G1 X76.803 Y104.672 E0.92273
G1 X76.803 Y104.096 E0.01951
G1 X96.067 Y123.361 E0.92273
G1 X96.067 Y122.785 E0.01951
G1 X76.845 Y103.563 E0.92070
G1 X77.421 Y103.563 E0.01951
G1 X96.067 Y122.209 E0.89311
G1 X96.067 Y121.633 E0.01951
G1 X77.997 Y103.563 E0.86552
G1 X78.573 Y103.563 E0.01951
G1 X96.067 Y121.057 E0.83793
G1 X96.067 Y120.481 E0.01951
G1 X79.149 Y103.563 E0.81034
G1 X79.726 Y103.563 E0.01951
G1 X96.067 Y119.905 E0.78275
G1 X96.067 Y119.329 E0.01951
G1 X80.302 Y103.563 E0.75516
G1 X80.878 Y103.563 E0.01951
G1 X96.067 Y118.752 E0.72756
G1 X96.067 Y118.176 E0.01951
G1 X81.454 Y103.563 E0.69997
G1 X82.030 Y103.563 E0.01951
G1 X96.067 Y117.600 E0.67238
G1 X96.067 Y117.024 E0.01951
G1 X82.606 Y103.563 E0.64479
G1 X83.182 Y103.563 E0.01951
G1 X96.067 Y116.448 E0.61720
G1 X96.067 Y115.872 E0.01951
G1 X83.758 Y103.563 E0.58961
G1 X84.334 Y103.563 E0.01951
G1 X96.067 Y115.296 E0.56202
G1 X96.067 Y114.720 E0.01951
G1 X84.910 Y103.563 E0.53442
G1 X85.486 Y103.563 E0.01951
G1 X96.067 Y114.144 E0.50683
G1 X96.067 Y113.568 E0.01951
G1 X86.062 Y103.563 E0.47924
G1 X86.638 Y103.563 E0.01951
G1 X96.067 Y112.992 E0.45165
G1 X96.067 Y112.416 E0.01951
G1 X87.214 Y103.563 E0.42406
G1 X87.790 Y103.563 E0.01951
G1 X96.067 Y111.840 E0.39647
G1 X96.067 Y111.264 E0.01951
G1 X88.366 Y103.563 E0.36888
G1 X88.942 Y103.563 E0.01951
G1 X96.067 Y110.688 E0.34128
G1 X96.067 Y110.112 E0.01951
G1 X89.518 Y103.563 E0.31369
G1 X90.094 Y103.563 E0.01951
G1 X96.067 Y109.536 E0.28610
G1 X96.067 Y108.960 E0.01951
G1 X90.670 Y103.563 E0.25851
G1 X91.246 Y103.563 E0.01951
G1 X96.067 Y108.384 E0.23092
G1 X96.067 Y107.808 E0.01951
G1 X91.822 Y103.563 E0.20333
G1 X92.398 Y103.563 E0.01951
G1 X96.067 Y107.232 E0.17574
G1 X96.067 Y106.656 E0.01951
G1 X92.975 Y103.563 E0.14815
G1 X93.551 Y103.563 E0.01951
G1 X96.067 Y106.080 E0.12055
G1 X96.067 Y105.503 E0.01951
G1 X94.127 Y103.563 E0.09296
G1 X94.703 Y103.563 E0.01951
G1 X96.067 Y104.927 E0.06537
G1 X96.067 Y104.351 E0.01951
G1 X95.279 Y103.563 E0.03778
G1 X95.855 Y103.563 E0.01951
G1 X96.067 Y103.775 E0.01019
G1 E-1.50000 F1800.00000
G1 X96.368 Y96.738 F6000.000
G1 E1.50000 F1800.00000
G1 X76.502 Y96.738 E0.67244 F1680.000
G1 X76.502 Y63.132 E1.13753
G1 X96.368 Y63.132 E0.67244
G1 X96.368 Y96.678 E1.13550
G1 X96.775 Y97.146 F6000.000
G1 X76.095 Y97.146 E0.69999 F1680.000
G1 X76.095 Y62.725 E1.16509
G1 X96.775 Y62.725 E0.69999
G1 X96.775 Y97.086 E1.16306
G1 X96.429 Y96.946 F6000.000
G1 E-1.50000 F1800.00000
G1 X76.803 Y96.225 F6000.000
G1 E1.50000 F1800.00000
G1 X77.016 Y96.438 E0.01018 F1680.000
G1 X77.592 Y96.438 E0.01951
G1 X76.803 Y95.649 E0.03778
G1 X76.803 Y95.073 E0.01951
G1 X78.168 Y96.438 E0.06537
G1 X78.744 Y96.438 E0.01951
G1 X76.803 Y94.497 E0.09296
G1 X76.803 Y93.921 E0.01951
G1 X79.320 Y96.438 E0.12055
G1 X79.896 Y96.438 E0.01951
G1 X76.803 Y93.345 E0.14814
G1 X76.803 Y92.769 E0.01951
G1 X80.472 Y96.438 E0.17573
G1 X81.048 Y96.438 E0.01951
G1 X76.803 Y92.193 E0.20332
G1 X76.803 Y91.617 E0.01951
G1 X81.624 Y96.438 E0.23092
G1 X82.200 Y96.438 E0.01951
G1 X76.803 Y91.041 E0.25851
G1 X76.803 Y90.465 E0.01951
G1 X82.776 Y96.438 E0.28610
G1 X83.352 Y96.438 E0.01951
G1 X76.803 Y89.889 E0.31369
G1 X76.803 Y89.313 E0.01951
G1 X83.928 Y96.438 E0.34128
G1 X84.504 Y96.438 E0.01951
G1 X76.803 Y88.737 E0.36887
G1 X76.803 Y88.160 E0.01951
G1 X85.080 Y96.438 E0.39646
G1 X85.656 Y96.438 E0.01951
G1 X76.803 Y87.584 E0.42406
G1 X76.803 Y87.008 E0.01951
G1 X86.232 Y96.438 E0.45165
G1 X86.808 Y96.438 E0.01951
G1 X76.803 Y86.432 E0.47924
G1 X76.803 Y85.856 E0.01951
G1 X87.384 Y96.438 E0.50683
G1 X87.960 Y96.438 E0.01951
G1 X76.803 Y85.280 E0.53442
G1 X76.803 Y84.704 E0.01951
G1 X88.536 Y96.438 E0.56201
G1 X89.113 Y96.438 E0.01951
G1 X76.803 Y84.128 E0.58960
G1 X76.803 Y83.552 E0.01951
G1 X89.689 Y96.438 E0.61719
G1 X90.265 Y96.438 E0.01951
G1 X76.803 Y82.976 E0.64479
G1 X76.803 Y82.400 E0.01951
G1 X90.841 Y96.438 E0.67238
G1 X91.417 Y96.438 E0.01951
G1 X76.803 Y81.824 E0.69997
G1 X76.803 Y81.248 E0.01951
G1 X91.993 Y96.438 E0.72756
G1 X92.569 Y96.438 E0.01951
G1 X76.803 Y80.672 E0.75515
G1 X76.803 Y80.096 E0.01951
G1 X93.145 Y96.438 E0.78274
G1 X93.721 Y96.438 E0.01951
G1 X76.803 Y79.520 E0.81033
G1 X76.803 Y78.944 E0.01951
G1 X94.297 Y96.438 E0.83793
G1 X94.873 Y96.438 E0.01951
G1 X76.803 Y78.368 E0.86552
G1 X76.803 Y77.792 E0.01951
G1 X95.449 Y96.438 E0.89311
G1 X96.025 Y96.438 E0.01951
G1 X76.803 Y77.216 E0.92070
G1 X76.803 Y76.640 E0.01951
G1 X96.067 Y95.904 E0.92273
G1 X96.067 Y95.328 E0.01951
G1 X76.803 Y76.064 E0.92273
G1 X76.803 Y75.488 E0.01951
G1 X96.067 Y94.752 E0.92273
G1 X96.067 Y94.176 E0.01951
G1 X76.803 Y74.912 E0.92273
G1 X76.803 Y74.335 E0.01951
G1 X96.067 Y93.600 E0.92273
G1 X96.067 Y93.024 E0.01951
G1 X76.803 Y73.759 E0.92273
G1 X76.803 Y73.183 E0.01951
G1 X96.067 Y92.448 E0.92273
G1 X96.067 Y91.872 E0.01951
G1 X76.803 Y72.607 E0.92273
G1 X76.803 Y72.031 E0.01951
G1 X96.067 Y91.296 E0.92273
G1 X96.067 Y90.720 E0.01951
G1 X76.803 Y71.455 E0.92273
G1 X76.803 Y70.879 E0.01951
G1 X96.067 Y90.144 E0.92273
G1 X96.067 Y89.568 E0.01951
G1 X76.803 Y70.303 E0.92273
G1 X76.803 Y69.727 E0.01951
G1 X96.067 Y88.992 E0.92273
G1 X96.067 Y88.416 E0.01951
G1 X76.803 Y69.151 E0.92273
G1 X76.803 Y68.575 E0.01951
G1 X96.067 Y87.839 E0.92273
G1 X96.067 Y87.263 E0.01951
G1 X76.803 Y67.999 E0.92273
G1 X76.803 Y67.423 E0.01951
G1 X96.067 Y86.687 E0.92273
G1 X96.067 Y86.111 E0.01951
G1 X76.803 Y66.847 E0.92273
G1 X76.803 Y66.271 E0.01951
G1 X96.067 Y85.535 E0.92273
G1 X96.067 Y84.959 E0.01951
G1 X76.803 Y65.695 E0.92273
G1 X76.803 Y65.119 E0.01951
G1 X96.067 Y84.383 E0.92273
G1 X96.067 Y83.807 E0.01951
G1 X76.803 Y64.543 E0.92273
G1 X76.803 Y63.967 E0.01951
G1 X96.067 Y83.231 E0.92273
G1 X96.067 Y82.655 E0.01951
G1 X76.845 Y63.433 E0.92070
G1 X77.421 Y63.433 E0.01951
G1 X96.067 Y82.079 E0.89311
G1 X96.067 Y81.503 E0.01951
G1 X77.997 Y63.433 E0.86552
G1 X78.573 Y63.433 E0.01951
G1 X96.067 Y80.927 E0.83793
G1 X96.067 Y80.351 E0.01951
G1 X79.149 Y63.433 E0.81034
G1 X79.726 Y63.433 E0.01951
G1 X96.067 Y79.775 E0.78275
G1 X96.067 Y79.199 E0.01951
G1 X80.302 Y63.433 E0.75516
G1 X80.878 Y63.433 E0.01951
G1 X96.067 Y78.623 E0.72756
G1 X96.067 Y78.047 E0.01951
G1 X81.454 Y63.433 E0.69997
G1 X82.030 Y63.433 E0.01951
G1 X96.067 Y77.471 E0.67238
G1 X96.067 Y76.895 E0.01951
G1 X82.606 Y63.433 E0.64479
G1 X83.182 Y63.433 E0.01951
G1 X96.067 Y76.319 E0.61720
G1 X96.067 Y75.743 E0.01951
G1 X83.758 Y63.433 E0.58961
G1 X84.334 Y63.433 E0.01951
G1 X96.067 Y75.167 E0.56202
G1 X96.067 Y74.590 E0.01951
G1 X84.910 Y63.433 E0.53442
G1 X85.486 Y63.433 E0.01951
G1 X96.067 Y74.014 E0.50683
G1 X96.067 Y73.438 E0.01951
G1 X86.062 Y63.433 E0.47924
G1 X86.638 Y63.433 E0.01951
G1 X96.067 Y72.862 E0.45165
G1 X96.067 Y72.286 E0.01951
G1 X87.214 Y63.433 E0.42406
G1 X87.790 Y63.433 E0.01951
G1 X96.067 Y71.710 E0.39647
G1 X96.067 Y71.134 E0.01951
G1 X88.366 Y63.433 E0.36888
G1 X88.942 Y63.433 E0.01951
G1 X96.067 Y70.558 E0.34128
G1 X96.067 Y69.982 E0.01951
G1 X89.518 Y63.433 E0.31369
G1 X90.094 Y63.433 E0.01951
G1 X96.067 Y69.406 E0.28610
G1 X96.067 Y68.830 E0.01951
G1 X90.670 Y63.433 E0.25851
G1 X91.246 Y63.433 E0.01951
G1 X96.067 Y68.254 E0.23092
G1 X96.067 Y67.678 E0.01951
G1 X91.822 Y63.433 E0.20333
G1 X92.398 Y63.433 E0.01951
G1 X96.067 Y67.102 E0.17574
G1 X96.067 Y66.526 E0.01951
G1 X92.975 Y63.433 E0.14815
G1 X93.551 Y63.433 E0.01951
G1 X96.067 Y65.950 E0.12055
G1 X96.067 Y65.374 E0.01951
G1 X94.127 Y63.433 E0.09296
G1 X94.703 Y63.433 E0.01951
G1 X96.067 Y64.798 E0.06537
G1 X96.067 Y64.222 E0.01951
G1 X95.279 Y63.433 E0.03778
G1 X95.855 Y63.433 E0.01951
G1 X96.067 Y63.646 E0.01019
G1 E-1.50000 F1800.00000
G1 X123.498 Y103.262 F6000.000
G1 E1.50000 F1800.00000
G1 X123.498 Y136.868 E1.13753 F1680.000
G1 X103.632 Y136.868 E0.67244
G1 X103.632 Y103.262 E1.13753
G1 X123.438 Y103.262 E0.67040
G1 X123.905 Y102.855 F6000.000
G1 X123.905 Y137.275 E1.16509 F1680.000
G1 X103.225 Y137.275 E0.69999
G1 X103.225 Y102.855 E1.16509
G1 X123.845 Y102.855 E0.69796
G1 X123.705 Y103.201 F6000.000
G1 E-1.50000 F1800.00000
G1 X123.197 Y103.775 F6000.000
G1 E1.50000 F1800.00000
G1 X122.985 Y103.563 E0.01019 F1680.000
G1 X122.409 Y103.563 E0.01951
G1 X123.197 Y104.351 E0.03778
G1 X123.197 Y104.927 E0.01951
G1 X121.833 Y103.563 E0.06537
G1 X121.257 Y103.563 E0.01951
G1 X123.197 Y105.503 E0.09296
G1 X123.197 Y106.080 E0.01951
G1 X120.681 Y103.563 E0.12055
G1 X120.105 Y103.563 E0.01951
G1 X123.197 Y106.656 E0.14815
G1 X123.197 Y107.232 E0.01951
G1 X119.528 Y103.563 E0.17574
G1 X118.952 Y103.563 E0.01951
G1 X123.197 Y107.808 E0.20333
G1 X123.197 Y108.384 E0.01951
G1 X118.376 Y103.563 E0.23092
G1 X117.800 Y103.563 E0.01951
G1 X123.197 Y108.960 E0.25851
G1 X123.197 Y109.536 E0.01951
G1 X117.224 Y103.563 E0.28610
G1 X116.648 Y103.563 E0.01951
G1 X123.197 Y110.112 E0.31369
G1 X123.197 Y110.688 E0.01951
G1 X116.072 Y103.563 E0.34128
G1 X115.496 Y103.563 E0.01951
G1 X123.197 Y111.264 E0.36888
G1 X123.197 Y111.840 E0.01951
G1 X114.920 Y103.563 E0.39647
G1 X114.344 Y103.563 E0.01951
G1 X123.197 Y112.416 E0.42406
G1 X123.197 Y112.992 E0.01951
G1 X113.768 Y103.563 E0.45165
G1 X113.192 Y103.563 E0.01951
G1 X123.197 Y113.568 E0.47924
G1 X123.197 Y114.144 E0.01951
G1 X112.616 Y103.563 E0.50683
G1 X112.040 Y103.563 E0.01951
G1 X123.197 Y114.720 E0.53442
G1 X123.197 Y115.296 E0.01951
G1 X111.464 Y103.563 E0.56202
G1 X110.888 Y103.563 E0.01951
G1 X123.197 Y115.872 E0.58961
G1 X123.197 Y116.448 E0.01951
G1 X110.312 Y103.563 E0.61720
G1 X109.736 Y103.563 E0.01951
G1 X123.197 Y117.024 E0.64479
G1 X123.197 Y117.600 E0.01951
G1 X109.160 Y103.563 E0.67238
G1 X108.584 Y103.563 E0.01951
G1 X123.197 Y118.176 E0.69997
G1 X123.197 Y118.752 E0.01951
G1 X108.008 Y103.563 E0.72756
G1 X107.432 Y103.563 E0.01951
G1 X123.197 Y119.329 E0.75516
G1 X123.197 Y119.905 E0.01951
G1 X106.856 Y103.563 E0.78275
G1 X106.279 Y103.563 E0.01951
G1 X123.197 Y120.481 E0.81034
G1 X123.197 Y121.057 E0.01951
G1 X105.703 Y103.563 E0.83793
G1 X105.127 Y103.563 E0.01951
G1 X123.197 Y121.633 E0.86552
G1 X123.197 Y122.209 E0.01951
G1 X104.551 Y103.563 E0.89311
G1 X103.975 Y103.563 E0.01951
G1 X123.197 Y122.785 E0.92070
G1 X123.197 Y123.361 E0.01951
G1 X103.933 Y104.096 E0.92273
G1 X103.933 Y104.672 E0.01951
G1 X123.197 Y123.937 E0.92273
G1 X123.197 Y124.513 E0.01951
G1 X103.933 Y105.248 E0.92273
G1 X103.933 Y105.825 E0.01951
G1 X123.197 Y125.089 E0.92273
G1 X123.197 Y125.665 E0.01951
G1 X103.933 Y106.401 E0.92273
G1 X103.933 Y106.977 E0.01951
G1 X123.197 Y126.241 E0.92273
G1 X123.197 Y126.817 E0.01951
G1 X103.933 Y107.553 E0.92273
G1 X103.933 Y108.129 E0.01951
G1 X123.197 Y127.393 E0.92273
G1 X123.197 Y127.969 E0.01951
G1 X103.933 Y108.705 E0.92273
G1 X103.933 Y109.281 E0.01951
G1 X123.197 Y128.545 E0.92273
G1 X123.197 Y129.121 E0.01951
G1 X103.933 Y109.857 E0.92273
G1 X103.933 Y110.433 E0.01951
G1 X123.197 Y129.697 E0.92273
G1 X123.197 Y130.273 E0.01951
G1 X103.933 Y111.009 E0.92273
G1 X103.933 Y111.585 E0.01951
G1 X123.197 Y130.849 E0.92273
G1 X123.197 Y131.425 E0.01951
G1 X103.933 Y112.161 E0.92273
G1 X103.933 Y112.737 E0.01951
G1 X123.197 Y132.001 E0.92273
